!!!OTL: Braw Lads of Galla Water
!!!id: HA015
**kern
*clefF4
*k[f#c#]
*D:
*M4/4
{4f#
8.e
16d
4.d
8f#
=2
4.a
8b
8a
8f#
8e
8d}
=3yy
{4f#
4e
4.dd
8cc#
=4
8b
8a
8dd
8cc#
4b
8.a}
{16a
=5
4.a
16b
16cc#
4.dd
8ee
=6
8ff#
8ee
8dd
8b
4.dd}
{8f#
=7
4f#
4e
4e
8.f#
16a
=8
4.b
8dd
4b
4a}
==
*-
!!!minrhy: 16
!!!meter: 4/4
!!!cut: Braw Lads of Galla Water
!!!key: HA015  16  D 4/4
!!!bem: Vorschlge weggelassen, Schluss auf der 5. Stufe!
!!!fog: a--b--c--d--
!! Haydn: Volksliedbearbeitungen, Bd1
